fa/file-circle-check.svg

<svg xmlns="http://www.w3.org/2000/svg" viewBox="0 0 576 512" height="1em" width="1em">
  <path d="M0 64C0 28.65 28.65 0 64 0h160v128c0 17.7 14.3 32 32 32h128v38.6c-73.9 20.9-128 88.8-128 169.4 0 59.1 29.1 111.3 73.7 143.3-3.1.4-6.4.7-9.7.7H64c-35.35 0-64-28.7-64-64V64zm256 64V0l128 128H256zm320 240c0 79.5-64.5 144-144 144s-144-64.5-144-144 64.5-144 144-144 144 64.5 144 144zm-99.3-43.3L416 385.4l-28.7-28.7c-6.2-6.3-16.4-6.3-22.6 0-6.3 6.2-6.3 16.4 0 22.6l40 40c6.2 6.3 16.4 6.3 22.6 0l72-72c6.3-6.2 6.3-16.4 0-22.6-6.2-6.3-16.4-6.3-22.6 0z"/>
</svg>

<svg xmlns="http://www.w3.org/2000/svg" viewBox="0 0 576 512" height="1em" width="1em">
  <path d="M0 64C0 28.65 28.65 0 64 0H224V128C224 145.7 238.3 160 256 160H384V198.6C310.1 219.5 256 287.4 256 368C256 427.1 285.1 479.3 329.7 511.3C326.6 511.7 323.3 512 320 512H64C28.65 512 0 483.3 0 448V64zM256 128V0L384 128H256zM576 368C576 447.5 511.5 512 432 512C352.5 512 288 447.5 288 368C288 288.5 352.5 224 432 224C511.5 224 576 288.5 576 368zM476.7 324.7L416 385.4L387.3 356.7C381.1 350.4 370.9 350.4 364.7 356.7C358.4 362.9 358.4 373.1 364.7 379.3L404.7 419.3C410.9 425.6 421.1 425.6 427.3 419.3L499.3 347.3C505.6 341.1 505.6 330.9 499.3 324.7C493.1 318.4 482.9 318.4 476.7 324.7H476.7z"/>
</svg>
